img/logo-github.svg

<svg fill="none" height="24" viewBox="0 0 25 24" width="25" xmlns="http://www.w3.org/2000/svg" xmlns:xlink="http://www.w3.org/1999/xlink"><clipPath id="a"><path d="m.756409-.001953h24v24h-24z"/></clipPath><g clip-path="url(#a)"><path clip-rule="evenodd" d="m12.7197-.00227356c-6.60555 0-11.963352 5.35779356-11.963352 11.96327356 0 5.2844 3.449542 9.7615 8.146792 11.3762.58715.0734.80734-.2936.80734-.5872s0-1.0275 0-2.055c-3.30276.7339-4.0367-1.6147-4.0367-1.6147-.51376-1.3945-1.3211-1.7615-1.3211-1.7615-1.10092-.7339.07339-.7339.07339-.7339 1.17431.0734 1.83486 1.2477 1.83486 1.2477 1.10092 1.8348 2.789 1.3211 3.44955 1.0275.07339-.8073.44032-1.3211.73392-1.6147-2.64218-.2935-5.43117-1.3211-5.43117-5.9449 0-1.32112.44037-2.34865 1.2477-3.22938-.07339-.22018-.51376-1.46789.14679-3.08257 0 0 1.02753-.29358 3.30276 1.24771.95412-.29358 1.98162-.36697 3.00922-.36697 1.0275 0 2.055.14679 3.0091.36697 2.2753-1.54129 3.3028-1.24771 3.3028-1.24771.6605 1.61468.2202 2.86239.1468 3.15597.7339.80733 1.2477 1.90828 1.2477 3.22938 0 4.6238-2.789 5.578-5.4312 5.8715.4403.367.8073 1.1009.8073 2.2019v3.3027c0 .2936.2202.6606.8074.5872 4.7706-1.6147 8.1467-6.0918 8.1467-11.3762-.0733-6.60548-5.4311-11.96327356-12.0366-11.96327356z" fill="#000" fill-rule="evenodd"/></g></svg>

<svg width="25" height="24" viewBox="0 0 25 24" fill="none" xmlns="http://www.w3.org/2000/svg">
<g clip-path="url(#clip0_3399_6113)">
<path fill-rule="evenodd" clip-rule="evenodd" d="M12.7197 -0.00227356C6.11415 -0.00227356 0.756348 5.35552 0.756348 11.961C0.756348 17.2454 4.20589 21.7225 8.90314 23.3372C9.49029 23.4106 9.71048 23.0436 9.71048 22.75C9.71048 22.4564 9.71048 21.7225 9.71048 20.695C6.40772 21.4289 5.67378 19.0803 5.67378 19.0803C5.16002 17.6858 4.35268 17.3188 4.35268 17.3188C3.25176 16.5849 4.42607 16.5849 4.42607 16.5849C5.60038 16.6583 6.26093 17.8326 6.26093 17.8326C7.36185 19.6674 9.04993 19.1537 9.71048 18.8601C9.78387 18.0528 10.1508 17.539 10.4444 17.2454C7.80222 16.9519 5.01323 15.9243 5.01323 11.3005C5.01323 9.97938 5.4536 8.95185 6.26093 8.07112C6.18754 7.85094 5.74717 6.60323 6.40772 4.98855C6.40772 4.98855 7.43525 4.69497 9.71048 6.23626C10.6646 5.94268 11.6921 5.86929 12.7197 5.86929C13.7472 5.86929 14.7747 6.01608 15.7288 6.23626C18.0041 4.69497 19.0316 4.98855 19.0316 4.98855C19.6921 6.60323 19.2518 7.85094 19.1784 8.14452C19.9123 8.95185 20.4261 10.0528 20.4261 11.3739C20.4261 15.9977 17.6371 16.9519 14.9949 17.2454C15.4352 17.6124 15.8022 18.3463 15.8022 19.4473C15.8022 21.0619 15.8022 22.3097 15.8022 22.75C15.8022 23.0436 16.0224 23.4106 16.6096 23.3372C21.3802 21.7225 24.7563 17.2454 24.7563 11.961C24.683 5.35552 19.3252 -0.00227356 12.7197 -0.00227356Z" fill="black"/>
</g>
<defs>
<clipPath id="clip0_3399_6113">
<rect width="24" height="24" fill="white" transform="translate(0.756409 -0.00195312)"/>
</clipPath>
</defs>
</svg>
